X:1
T:Morrison's
R:jig
M:6/8
L:1/8
K:Edor
|:~E2E BEB|EBE AFD|~E2E BEB|dcB AFD|
|~E2E BEB|EBE AFD|~G2G FGA|dAG FED:|
|Bee fee|aee fed|Bee fee|~a2g fed|
|Bee fee|aee fed|gfe d2A|BAG FED|
|Bee fee|aee fed|Bee fee|faf def|
|~g2g gfe|def ~g2d|edc d2A|BAG FED|